X:1092
T:Pollonesse 1832-15
O:Södermanland
R:Slängpolska
B:Notbok 1832 från Sörmlands museum
N:[[http://www.sormlandsmusikarkiv.se/noter/1832/1832.html]]
Z:Jonas Brunskog (via midi)
M: 3/4
L: 1/8
Q:1/4=104
K:A
|:e/2f/2e/2^d/2 ef gb|a/2g/2f/2g/2 ag fe|g/2f/2e/2^d/2 ef ga|fe/2^d/2 e2 E2:|
|:cd/2e/2 fe cd|BB dc A2|cd/2e/2 fe cd|Bc/2B/2 A2 A,2:|
(:musicend:)

(:music:)
